svgs/sharp-regular/money-simple-from-bracket.svg

<svg xmlns="http://www.w3.org/2000/svg" viewBox="0 0 640 512"><!--! Font Awesome Pro 6.6.0 by @fontawesome - https://fontawesome.com License - https://fontawesome.com/license (Commercial License) Copyright 2024 Fonticons, Inc. --><path d="M24 0L616 0l24 0 0 24 0 144 0 24-48 0 0-24 0-120L48 48l0 120 0 24L0 192l0-24L0 24 0 0 24 0zM464 464l0-368 48 0 0 392 0 24-24 0-336 0-24 0 0-24 0-392 48 0 0 368 288 0zM320 352c-53 0-96-35.8-96-80s43-80 96-80s96 35.8 96 80s-43 80-96 80z"/></svg>

<svg xmlns="http://www.w3.org/2000/svg" viewBox="0 0 640 512"><!--! Font Awesome Pro 6.4.0 by @fontawesome - https://fontawesome.com License - https://fontawesome.com/license (Commercial License) Copyright 2023 Fonticons, Inc. --><path d="M24 0H616h24V24 168v24H592V168 48H48V168v24H0V168 24 0H24zM464 464l0-368h48l0 392v24H488 152l-24 0V488l0-392h48l0 368H464zM320 352c-53 0-96-35.8-96-80s43-80 96-80s96 35.8 96 80s-43 80-96 80z"/></svg>
